packages/ffe-icons/icons/filled/md/ungroup.svg

<svg xmlns="http://www.w3.org/2000/svg" height="24" viewBox="0 -960 960 960" width="24"><path d="M530.001-488.233 368.692-326.924q-8.308 8.308-20.692 8.116-12.384-.193-20.692-8.5-8.307-8.308-8.307-20.948 0-12.641 8.307-20.82l160.925-160.925H360q-12.75 0-21.374-8.628-8.625-8.629-8.625-21.384 0-12.756 8.625-21.371 8.624-8.615 21.374-8.615h193.846q15.365 0 25.759 10.394t10.394 25.759V-360q0 12.75-8.628 21.374-8.629 8.625-21.384 8.625-12.756 0-21.371-8.625-8.615-8.624-8.615-21.374v-128.233ZM509.999-760q-12.749 0-21.374-8.629Q480-777.257 480-790.013q0-12.755 8.625-21.37 8.625-8.616 21.374-8.616h237.692q29.827 0 51.067 21.241 21.241 21.24 21.241 51.067v237.692q0 12.749-8.629 21.374Q802.741-480 789.986-480q-12.756 0-21.371-8.625Q760-497.25 760-509.999v-237.692q0-5.385-3.462-8.847-3.462-3.462-8.847-3.462H509.999Zm-297.69 619.999q-30.308 0-51.308-21t-21-51.308v-577.69q0-12.75 8.629-21.375t21.384-8.625q12.756 0 21.371 8.625Q200-802.749 200-789.999v577.69q0 4.616 3.846 8.463 3.847 3.846 8.463 3.846h577.69q12.75 0 21.375 8.629 8.625 8.628 8.625 21.384 0 12.755-8.625 21.37-8.625 8.616-21.375 8.616h-577.69Z"/></svg>

<svg xmlns="http://www.w3.org/2000/svg" height="24" viewBox="0 -960 960 960" width="24"><path d="M530-488.23 368.69-326.92q-8.31 8.3-20.69 8.11-12.38-.19-20.69-8.5T319-348.26q0-12.64 8.31-20.82L488.23-530H360q-12.75 0-21.37-8.63-8.63-8.63-8.63-21.38 0-12.76 8.63-21.37Q347.25-590 360-590h193.85q15.36 0 25.76 10.39Q590-569.21 590-553.85V-360q0 12.75-8.63 21.37-8.63 8.63-21.38 8.63-12.76 0-21.37-8.63Q530-347.25 530-360v-128.23ZM510-760q-12.75 0-21.38-8.63-8.62-8.63-8.62-21.38 0-12.76 8.62-21.37Q497.25-820 510-820h237.69q29.83 0 51.07 21.24Q820-777.52 820-747.69V-510q0 12.75-8.63 21.38-8.63 8.62-21.38 8.62-12.76 0-21.37-8.62Q760-497.25 760-510v-237.69q0-5.39-3.46-8.85t-8.85-3.46H510ZM212.31-140Q182-140 161-161q-21-21-21-51.31V-790q0-12.75 8.63-21.37 8.63-8.63 21.38-8.63 12.76 0 21.37 8.63Q200-802.75 200-790v577.69q0 4.62 3.85 8.46 3.84 3.85 8.46 3.85H790q12.75 0 21.37 8.63 8.63 8.63 8.63 21.38 0 12.76-8.63 21.37Q802.75-140 790-140H212.31Z"/></svg>
